assets/f_mil.svg

<svg width="32" height="32" viewBox="0 0 32 32" fill="none" xmlns="http://www.w3.org/2000/svg">
<path d="M16 31.5C7.43959 31.5 0.5 24.5604 0.5 16C0.5 7.43959 7.43959 0.5 16 0.5C24.5604 0.5 31.5 7.43959 31.5 16C31.5 24.5604 24.5604 31.5 16 31.5Z" fill="#000" stroke="#fff" stroke-linejoin="round"/>
<path d="M15.561 8.84918C15.7505 8.50171 16.2495 8.50171 16.439 8.84918L18.1375 11.9636C18.3532 12.3592 18.7354 12.6369 19.1783 12.7198L22.6652 13.3728C23.0542 13.4456 23.2084 13.9202 22.9365 14.2078L20.4993 16.7856C20.1898 17.113 20.0438 17.5622 20.1018 18.0091L20.5583 21.5271C20.6092 21.9196 20.2056 22.2129 19.848 22.0431L16.6432 20.5219C16.2362 20.3286 15.7638 20.3286 15.3568 20.5219L12.152 22.0431C11.7944 22.2129 11.3908 21.9196 11.4417 21.5271L11.8982 18.0091C11.9562 17.5622 11.8102 17.113 11.5007 16.7856L9.06352 14.2078C8.79162 13.9202 8.9458 13.4456 9.33482 13.3728L12.8217 12.7198C13.2646 12.6369 13.6468 12.3592 13.8625 11.9636L15.561 8.84918Z" fill="#fff" stroke="#fff" stroke-linejoin="round"/>
</svg>

<svg xmlns="http://www.w3.org/2000/svg" width="32" height="32" fill="none" viewBox="0 0 32 32">
  <rect width="31" height="31" x=".5" y=".5" fill="#000" stroke="#fff" stroke-linejoin="round" rx="7.5"/>
  <path fill="#fff" stroke="#fff" stroke-linejoin="round" d="M15.561 8.85a.5.5 0 0 1 .878 0l1.698 3.114a1.5 1.5 0 0 0 1.041.756l3.487.653a.5.5 0 0 1 .271.835L20.5 16.786a1.5 1.5 0 0 0-.397 1.223l.456 3.518a.5.5 0 0 1-.71.516l-3.205-1.521a1.5 1.5 0 0 0-1.286 0l-3.205 1.521a.5.5 0 0 1-.71-.516l.456-3.518a1.5 1.5 0 0 0-.397-1.223l-2.437-2.578a.5.5 0 0 1 .27-.835l3.488-.653a1.5 1.5 0 0 0 1.04-.756l1.699-3.115Z"/>
</svg>
